sprites/streets-v8/_svg/dog-park-11.svg

<?xml version="1.0" encoding="UTF-8" standalone="no"?>
<svg
   xmlns:dc="http://purl.org/dc/elements/1.1/"
   xmlns:cc="http://creativecommons.org/ns#"
   xmlns:rdf="http://www.w3.org/1999/02/22-rdf-syntax-ns#"
   xmlns:svg="http://www.w3.org/2000/svg"
   xmlns="http://www.w3.org/2000/svg"
   id="svg2"
   width="19"
   height="19"
   viewBox="0 0 19 19"
   version="1.1">
  <metadata
     id="metadata14">
    <rdf:RDF>
      <cc:Work
         rdf:about="">
        <dc:format>image/svg+xml</dc:format>
        <dc:type
           rdf:resource="http://purl.org/dc/dcmitype/StillImage" />
      </cc:Work>
    </rdf:RDF>
  </metadata>
  <defs
     id="defs12" />
  <ellipse
     id="ellipse4"
     ry="9.5"
     rx="9.5"
     cy="9.5"
     cx="9.5"
     style="fill:#ffffff;stroke:none;" />
  <ellipse
     id="ellipse6"
     rx="8.5"
     ry="8.5"
     cy="9.5"
     cx="9.5"
     style="fill:#7e9a4c;stroke:none;" />
  <g
     id="g8"
     transform="translate(4,4)">
      <metadata     id="metadata15">    <rdf:RDF>      <cc:Work         rdf:about="">        <dc:format>image/svg+xml</dc:format>        <dc:type           rdf:resource="http://purl.org/dc/dcmitype/StillImage" />        <dc:title />      </cc:Work>    </rdf:RDF>  </metadata>  <defs     id="defs13" />  <path     id="rect4698"     d="M 7.5,1 C 7.5,1 7.154311,1.0370671 7,1.5 l -0.5,2 2,1.5 1.5,0 c 1,0 1,-1 1,-1 L 9.5,2.5 C 9,2 8.5,2 8,2 L 8,1.5 C 8,1.5 8,1 7.5,1 Z m -5,1 C 2.5,2 2.1466006,1.9931059 1.7773438,2.1777344 1.4080868,2.3623629 1,2.8333333 1,3.5 L 1,4.4648438 C 0.99958793,4.4765588 0.99958793,4.4882849 1,4.5 L 1,5 1,5.5 C 1,6.5 1,7 0.5,7 0.5,7 0,7 0,7.5 l 0,2 C 0,9.5 0,10 0.5,10 1,10 1,9.5 1,9.5 L 1,8 C 1.3536663,8 1.6905702,7.8628585 2,7.7011719 L 2,9.5 C 2,9.5 2,10 2.5,10 3,10 3,9.5 3,9.5 L 3,7 6,7 6.6640625,8.9921875 C 6.9999809,9.9999426 7.5,10 7.5,10 L 8,10 C 8,10 8.5,10 8.5,9.5 8.5,9 8,9 8,9 L 8,6.5 C 8,5.609375 7.367833,5.2449031 7,5 L 5.4980469,4 2,4 2,3.5 C 2,3.1666667 2.0919132,3.1376371 2.2226562,3.0722656 2.3533994,3.0068941 2.5,3 2.5,3 3.1761613,3.00956 3.1761613,1.9904374 2.5,2 Z"     style="opacity:1;fill:#ffffff;fill-opacity:1;stroke:none;stroke-width:1;stroke-linecap:round;stroke-linejoin:round;stroke-miterlimit:4;stroke-dasharray:none;stroke-dashoffset:0;stroke-opacity:1;marker:none" />
  </g>
</svg>

<?xml version="1.0" encoding="utf-8"?>
<!-- Generator: Adobe Illustrator 17.1.0, SVG Export Plug-In . SVG Version: 6.00 Build 0)  -->
<!DOCTYPE svg PUBLIC "-//W3C//DTD SVG 1.1//EN" "http://www.w3.org/Graphics/SVG/1.1/DTD/svg11.dtd">
<svg version="1.1"
	 id="svg2" xmlns:svg="http://www.w3.org/2000/svg" xmlns:cc="http://creativecommons.org/ns#" xmlns:dc="http://purl.org/dc/elements/1.1/" xmlns:rdf="http://www.w3.org/1999/02/22-rdf-syntax-ns#"
	 xmlns="http://www.w3.org/2000/svg" xmlns:xlink="http://www.w3.org/1999/xlink" x="0px" y="0px" width="19px" height="19px"
	 viewBox="0 0 19 19" enable-background="new 0 0 19 19" xml:space="preserve">
<ellipse id="ellipse4" fill="#FFFFFF" cx="9.5" cy="9.5" rx="9.5" ry="9.5"/>
<ellipse id="ellipse6" fill="#7E9A4C" cx="9.5" cy="9.5" rx="8.5" ry="8.5"/>
<g id="g8" transform="translate(4,4)">
	<path id="rect4698" fill="#FFFFFF" d="M7.5,1c0,0-0.3,0-0.5,0.5l-0.5,2l2,1.5H10c1,0,1-1,1-1L9.5,2.5C9,2,8.5,2,8,2V1.5
		C8,1.5,8,1,7.5,1z M2.5,2c0,0-0.4,0-0.7,0.2S1,2.8,1,3.5v1l0,0V5v0.5C1,6.5,1,7,0.5,7C0.5,7,0,7,0,7.5v2c0,0,0,0.5,0.5,0.5
		S1,9.5,1,9.5V8c0.4,0,0.7-0.1,1-0.3v1.8c0,0,0,0.5,0.5,0.5S3,9.5,3,9.5V7h3l0.7,2c0.3,1,0.8,1,0.8,1H8c0,0,0.5,0,0.5-0.5S8,9,8,9
		V6.5C8,5.6,7.4,5.2,7,5L5.5,4H2V3.5c0-0.3,0.1-0.4,0.2-0.4C2.4,3,2.5,3,2.5,3C3.2,3,3.2,2,2.5,2z"/>
</g>
</svg>
